svg/material-icons/wind_power/materialiconsround/20px.svg

<svg xmlns="http://www.w3.org/2000/svg" width="20" height="20" viewBox="0 0 20 20"><path d="M7.25 3h-3.5c-.41 0-.75.34-.75.75s.34.75.75.75h3.5c.41 0 .75-.34.75-.75S7.66 3 7.25 3zm-3 3.5h-2.5c-.41 0-.75.34-.75.75s.34.75.75.75h2.5c.41 0 .75-.34.75-.75s-.34-.75-.75-.75zM3.75 17h2.5c.41 0 .75-.34.75-.75s-.34-.75-.75-.75h-2.5c-.41 0-.75.34-.75.75s.34.75.75.75zm6.31-4.57c.79.24 1.63-.2 1.87-1 .24-.79-.2-1.63-1-1.87-.79-.24-1.63.2-1.87 1-.24.79.21 1.63 1 1.87zm-1.95-2.16c.16-.52.48-.96.89-1.27H2.8C1.81 9 1 9.81 1 10.8c0 .8.53 1.51 1.31 1.73l3.6 1.03c.4.11.83.06 1.18-.16l1.44-.87c-.48-.61-.67-1.45-.42-2.26z"/><path d="m17.77 15.32-1.82-3.27c-.2-.36-.54-.63-.95-.73l-2.02-.5c.02.3 0 .61-.1.92-.5 1.62-2.03 1.77-2.39 1.77-.25 0-.49-.04-.73-.11-.01 0-.01-.01-.02-.01v4.04h-.16C8.71 17.42 8 18.13 8 19h5c0-.87-.71-1.58-1.58-1.58h-.17V13.8l3.67 3.67a1.801 1.801 0 0 0 2.85-2.15zm-6.54-6.71c.63.19 1.13.62 1.43 1.16l3.32-5.54c.51-.85.24-1.96-.62-2.47a1.81 1.81 0 0 0-2.16.23l-2.74 2.56c-.29.28-.46.68-.46 1.09v2.91c.18-.03.64-.12 1.23.06z"/></svg>

<svg xmlns="http://www.w3.org/2000/svg" enable-background="new 0 0 20 20" height="20" viewBox="0 0 20 20" width="20"><g><rect fill="none" height="20" width="20"/></g><g><g><g><path d="M7.25,3h-3.5C3.34,3,3,3.34,3,3.75v0C3,4.16,3.34,4.5,3.75,4.5h3.5C7.66,4.5,8,4.16,8,3.75v0C8,3.34,7.66,3,7.25,3z"/></g><g><path d="M4.25,6.5h-2.5C1.34,6.5,1,6.84,1,7.25v0C1,7.66,1.34,8,1.75,8h2.5C4.66,8,5,7.66,5,7.25v0C5,6.84,4.66,6.5,4.25,6.5z"/></g><g><path d="M3.75,17h2.5C6.66,17,7,16.66,7,16.25l0,0c0-0.41-0.34-0.75-0.75-0.75h-2.5C3.34,15.5,3,15.84,3,16.25l0,0 C3,16.66,3.34,17,3.75,17z"/></g><g><path d="M10.06,12.43c0.79,0.24,1.63-0.2,1.87-1c0.24-0.79-0.2-1.63-1-1.87c-0.79-0.24-1.63,0.2-1.87,1 C8.82,11.35,9.27,12.19,10.06,12.43z"/></g><g><path d="M8.11,10.27C8.27,9.75,8.59,9.31,9,9H2.8C1.81,9,1,9.81,1,10.8c0,0.8,0.53,1.51,1.31,1.73l3.6,1.03 c0.4,0.11,0.83,0.06,1.18-0.16l1.44-0.87C8.05,11.92,7.86,11.08,8.11,10.27z"/></g><g><path d="M17.77,15.32l-1.82-3.27c-0.2-0.36-0.54-0.63-0.95-0.73l-2.02-0.5c0.02,0.3,0,0.61-0.1,0.92 c-0.5,1.62-2.03,1.77-2.39,1.77c-0.25,0-0.49-0.04-0.73-0.11c-0.01,0-0.01-0.01-0.02-0.01v4.04H9.58C8.71,17.42,8,18.13,8,19h5 c0-0.87-0.71-1.58-1.58-1.58h-0.17V13.8l3.67,3.67c0.7,0.7,1.85,0.7,2.55,0C18.04,16.9,18.16,16.03,17.77,15.32z"/></g><g><path d="M11.23,8.61c0.63,0.19,1.13,0.62,1.43,1.16l3.32-5.54c0.51-0.85,0.24-1.96-0.62-2.47c-0.69-0.41-1.57-0.32-2.16,0.23 l-2.74,2.56C10.17,4.83,10,5.23,10,5.64v2.91C10.18,8.52,10.64,8.43,11.23,8.61z"/></g></g></g></svg>
